build/img/reviews/insta.svg

<svg width="24" height="24" viewBox="0 0 24 24" fill="none" xmlns="http://www.w3.org/2000/svg">
<path d="M12.2362 24.0004C12.1567 24.0004 12.0773 24.0004 11.9973 24.0001C10.116 24.0046 8.37781 23.9568 6.68738 23.8539C5.13757 23.7596 3.7229 23.2241 2.59607 22.3052C1.50879 21.4186 0.766296 20.2198 0.389282 18.7425C0.0611573 17.4564 0.0437622 16.1939 0.0270996 14.9728C0.0150146 14.0966 0.00256348 13.0584 0 12.0026C0.00256348 10.9424 0.0150146 9.90423 0.0270996 9.02807C0.0437622 7.80712 0.0611573 6.54461 0.389282 5.25829C0.766296 3.781 1.50879 2.58221 2.59607 1.69561C3.7229 0.776788 5.13757 0.241205 6.68756 0.146905C8.37799 0.0441832 10.1166 -0.00379048 12.0018 0.000787162C13.8836 -0.00324116 15.6213 0.0441832 17.3117 0.146905C18.8615 0.241205 20.2762 0.776788 21.403 1.69561C22.4905 2.58221 23.2328 3.781 23.6098 5.25829C23.9379 6.54443 23.9553 7.80712 23.972 9.02807C23.9841 9.90423 23.9967 10.9424 23.9991 11.9982V12.0026C23.9967 13.0584 23.9841 14.0966 23.972 14.9728C23.9553 16.1937 23.9381 17.4562 23.6098 18.7425C23.2328 20.2198 22.4905 21.4186 21.403 22.3052C20.2762 23.2241 18.8615 23.7596 17.3117 23.8539C15.6929 23.9524 14.0299 24.0004 12.2362 24.0004V24.0004ZM11.9973 22.1251C13.8479 22.1294 15.5471 22.0828 17.1978 21.9824C18.3697 21.9112 19.3857 21.5309 20.2181 20.8521C20.9875 20.2246 21.5175 19.3589 21.793 18.2789C22.0662 17.2083 22.082 16.0588 22.0972 14.9471C22.1091 14.0768 22.1215 13.046 22.1241 12.0004C22.1215 10.9547 22.1091 9.924 22.0972 9.0537C22.082 7.94207 22.0662 6.79253 21.793 5.72173C21.5175 4.64178 20.9875 3.77606 20.2181 3.14855C19.3857 2.46996 18.3697 2.08965 17.1978 2.01843C15.5471 1.9179 13.8479 1.87158 12.0016 1.8756C10.1514 1.87121 8.45197 1.9179 6.80127 2.01843C5.62939 2.08965 4.61334 2.46996 3.78094 3.14855C3.01154 3.77606 2.48163 4.64178 2.20605 5.72173C1.93286 6.79253 1.91711 7.94189 1.90192 9.0537C1.89001 9.92474 1.87756 10.9562 1.875 12.0026C1.87756 13.0445 1.89001 14.0761 1.90192 14.9471C1.91711 16.0588 1.93286 17.2083 2.20605 18.2789C2.48163 19.3589 3.01154 20.2246 3.78094 20.8521C4.61334 21.5307 5.62939 21.911 6.80127 21.9822C8.45197 22.0828 10.1517 22.1296 11.9973 22.1251V22.1251ZM11.9526 17.8598C8.72186 17.8598 6.0932 15.2313 6.0932 12.0004C6.0932 8.76952 8.72186 6.14105 11.9526 6.14105C15.1835 6.14105 17.812 8.76952 17.812 12.0004C17.812 15.2313 15.1835 17.8598 11.9526 17.8598V17.8598ZM11.9526 8.01604C9.75568 8.01604 7.9682 9.80352 7.9682 12.0004C7.9682 14.1973 9.75568 15.9848 11.9526 15.9848C14.1497 15.9848 15.937 14.1973 15.937 12.0004C15.937 9.80352 14.1497 8.01604 11.9526 8.01604V8.01604ZM18.4682 4.26605C17.6917 4.26605 17.062 4.89556 17.062 5.6723C17.062 6.44903 17.6917 7.07854 18.4682 7.07854C19.2449 7.07854 19.8745 6.44903 19.8745 5.6723C19.8745 4.89556 19.2449 4.26605 18.4682 4.26605Z" fill="url(#paint0_linear_1874_2536)"/>
<defs>
<linearGradient id="paint0_linear_1874_2536" x1="0" y1="24.0004" x2="23.9999" y2="0.00133325" gradientUnits="userSpaceOnUse">
<stop stop-color="#405DE6"/>
<stop offset="0.15625" stop-color="#5851DB"/>
<stop offset="0.322917" stop-color="#833AB4"/>
<stop offset="0.520833" stop-color="#C13584"/>
<stop offset="0.723958" stop-color="#E1306C"/>
<stop offset="1" stop-color="#FD1D1D"/>
</linearGradient>
</defs>
</svg>

<svg width="24" height="24" fill="none" xmlns="http://www.w3.org/2000/svg"><path d="M12.236 24h-.239a83.484 83.484 0 01-5.31-.146c-1.55-.094-2.964-.63-4.09-1.549C1.508 21.42.766 20.22.388 18.742c-.328-1.286-.345-2.548-.362-3.77-.012-.875-.024-1.914-.027-2.97.003-1.06.015-2.098.027-2.974.017-1.22.034-2.483.362-3.77.377-1.477 1.12-2.676 2.207-3.562C3.723.776 5.138.24 6.688.146c1.69-.102 3.429-.15 5.314-.145 1.882-.004 3.62.043 5.31.146 1.55.094 2.964.63 4.091 1.549 1.088.886 1.83 2.085 2.207 3.562.328 1.286.345 2.55.362 3.77.012.876.025 1.914.027 2.97v.005a258.853 258.853 0 01-.027 2.97c-.017 1.22-.034 2.483-.362 3.77-.377 1.477-1.12 2.676-2.207 3.562-1.127.92-2.541 1.455-4.091 1.549a82.996 82.996 0 01-5.076.146zm-.239-1.875c1.85.004 3.55-.042 5.2-.143 1.173-.07 2.189-.451 3.021-1.13.77-.627 1.3-1.493 1.575-2.573.273-1.07.289-2.22.304-3.332.012-.87.024-1.901.027-2.947a265.014 265.014 0 00-.027-2.946c-.015-1.112-.03-2.261-.304-3.332-.276-1.08-.805-1.946-1.575-2.573-.832-.679-1.848-1.06-3.02-1.13a81.571 81.571 0 00-5.196-.143 81.7 81.7 0 00-5.2.142c-1.173.072-2.189.452-3.021 1.13-.77.628-1.3 1.494-1.575 2.574-.273 1.07-.289 2.22-.304 3.332-.012.87-.024 1.902-.027 2.949.003 1.041.015 2.073.027 2.944.015 1.112.03 2.261.304 3.332.276 1.08.806 1.946 1.575 2.573.832.679 1.848 1.059 3.02 1.13 1.651.1 3.35.148 5.196.143zm-.044-4.265A5.866 5.866 0 016.093 12a5.867 5.867 0 015.86-5.859 5.867 5.867 0 015.859 5.86 5.867 5.867 0 01-5.86 5.859zm0-9.844A3.989 3.989 0 007.968 12a3.989 3.989 0 003.985 3.985A3.989 3.989 0 0015.937 12a3.989 3.989 0 00-3.984-3.984zm6.515-3.75a1.406 1.406 0 100 2.813 1.406 1.406 0 000-2.813z" fill="url(#paint0_linear_1874_2536)"/><defs><linearGradient id="paint0_linear_1874_2536" x1="0" y1="24" x2="24" y2=".001" gradientUnits="userSpaceOnUse"><stop stop-color="#405DE6"/><stop offset=".156" stop-color="#5851DB"/><stop offset=".323" stop-color="#833AB4"/><stop offset=".521" stop-color="#C13584"/><stop offset=".724" stop-color="#E1306C"/><stop offset="1" stop-color="#FD1D1D"/></linearGradient></defs></svg>
